images/icon_external-link.svg

<svg fill="none" height="24" viewBox="0 0 24 24" width="24" xmlns="http://www.w3.org/2000/svg"><g stroke="#ff512f" stroke-linecap="round" stroke-linejoin="round" stroke-width="2"><path d="m18 13v6c0 .5304-.2107 1.0391-.5858 1.4142s-.8838.5858-1.4142.5858h-11c-.53043 0-1.03914-.2107-1.41421-.5858-.37508-.3751-.58579-.8838-.58579-1.4142v-11c0-.53043.21071-1.03914.58579-1.41421.37507-.37508.88378-.58579 1.41421-.58579h6"/><path d="m15 3h6v6"/><path d="m10 14 11-11"/></g></svg>

<svg width="24" height="24" viewBox="0 0 24 24" fill="none" xmlns="http://www.w3.org/2000/svg">
<path d="M18 13V19C18 19.5304 17.7893 20.0391 17.4142 20.4142C17.0391 20.7893 16.5304 21 16 21H5C4.46957 21 3.96086 20.7893 3.58579 20.4142C3.21071 20.0391 3 19.5304 3 19V8C3 7.46957 3.21071 6.96086 3.58579 6.58579C3.96086 6.21071 4.46957 6 5 6H11" stroke="#FF512F" stroke-width="2" stroke-linecap="round" stroke-linejoin="round"/>
<path d="M15 3H21V9" stroke="#FF512F" stroke-width="2" stroke-linecap="round" stroke-linejoin="round"/>
<path d="M10 14L21 3" stroke="#FF512F" stroke-width="2" stroke-linecap="round" stroke-linejoin="round"/>
</svg>
